Papirus/24x24/apps/org.kde.merkuro.contact.svg

<!-- Created with Inkscape (http://www.inkscape.org/) -->
<svg width="24" height="24" version="1.1" viewBox="0 0 24 24" xmlns="http://www.w3.org/2000/svg">
 <rect x="2" y="2.5" width="20" height="20" ry="3.5" style="opacity:.2"/>
 <rect x="2" y="2" width="20" height="20" ry="3.5" style="fill:#4bae4f"/>
 <path d="m12 12.500001c-4.9995 0.0032-5 3.446153-5 3.446153v1.4s0.923071 2.153846 5 2.153846 5-2.153846 5-2.153846v-1.4s0-3.448307-4.999-3.446153zm0-7.000001c-1.6572 0-3 1.3434-3 3s1.3428 3 3 3 3-1.3434 3-3-1.3428-3-3-3z" style="opacity:.2"/>
 <path d="m12 12.000001c-4.9994997 0.0032-4.9999998 3.446153-4.9999998 3.446153v1.4s0.9230711 2.153846 4.9999998 2.153846c4.076929 0 5-2.153846 5-2.153846v-1.4s0-3.448307-4.999-3.446153zm0-7.0000008c-1.6572 0-2.9999997 1.3434-2.9999997 3s1.3427997 2.9999998 2.9999997 2.9999998 3-1.3433998 3-2.9999999c0-1.6566-1.3428-3-3-2.9999999z" style="fill:#ffffff"/>
 <path d="m5.5 2c-1.9389981 0-3.5 1.5610019-3.5 3.5v0.5c0-1.9389981 1.5610019-3.5 3.5-3.5h13c1.938998 0 3.5 1.5610019 3.5 3.5v-0.5c0-1.9389981-1.561002-3.5-3.5-3.5z" style="fill:#ffffff;opacity:.2"/>
</svg>

<svg xmlns="http://www.w3.org/2000/svg" width="24" height="24" version="1.1">
 <rect style="opacity:0.2" width="20" height="20" x="2" y="2.5" ry="3.5"/>
 <rect style="fill:#4bae4f" width="20" height="20" x="2" y="2" ry="3.5"/>
 <path style="opacity:0.2" d="M 15,8.5 A 3,3 0 0 1 12,11.5 3,3 0 0 1 9,8.5 3,3 0 0 1 12,5.5 3,3 0 0 1 15,8.5 Z M 12,12.5 C 7,12.5 7,15.95 7,15.95 V 17.35 C 7,17.35 7.92,19.5 12,19.5 16.08,19.5 17,17.35 17,17.35 V 15.95 C 17,15.95 17,12.5 12,12.5 Z"/>
 <path style="fill:#ffffff" d="M 15,8 A 3,3 0 0 1 12,11 3,3 0 0 1 9,8 3,3 0 0 1 12,5 3,3 0 0 1 15,8 Z M 12,12 C 7,12 7,15.45 7,15.45 V 16.85 C 7,16.85 7.92,19 12,19 16.08,19 17,16.85 17,16.85 V 15.45 C 17,15.45 17,12 12,12 Z"/>
 <path style="fill:#ffffff;opacity:0.2" d="M 5.5 2 C 3.561 2 2 3.561 2 5.5 L 2 6 C 2 4.061 3.561 2.5 5.5 2.5 L 18.5 2.5 C 20.439 2.5 22 4.061 22 6 L 22 5.5 C 22 3.561 20.439 2 18.5 2 L 5.5 2 z"/>
</svg>
